lib/preview_tmp/nrk-logo-nrk-sport-title-below-on-dark.svg

<svg width="49" height="39" viewBox="0 0 49 39" fill="none" xmlns="http://www.w3.org/2000/svg">
<path d="M0 14.3333V0.334605H4.59339V14.3333H0ZM10.8428 2.56258L13.4844 14.3333H8.45737L5.30307 0.334605H8.12254C8.76907 0.326214 9.39641 0.554123 9.88691 0.975455C10.3782 1.37911 10.7158 1.93948 10.8428 2.56258ZM14.1744 14.3333V0.334605H18.7678V14.3333H14.1744ZM22.2372 5.65812C21.7422 5.66294 21.2552 5.53343 20.828 5.28346C20.4064 5.03981 20.0563 4.68962 19.8127 4.26803C19.5624 3.84072 19.4329 3.35355 19.4378 2.85837C19.4321 2.3662 19.5618 1.88194 19.8127 1.4585C20.0589 1.04149 20.4086 0.695109 20.828 0.452939C21.2553 0.203253 21.7423 0.073767 22.2372 0.0782812C22.7292 0.0729823 23.2133 0.202584 23.6369 0.452939C24.0521 0.697232 24.3981 1.04332 24.6424 1.4585C24.893 1.88206 25.0226 2.36624 25.0172 2.85837C25.0218 3.35352 24.8923 3.8406 24.6424 4.26803C24.4007 4.68777 24.0542 5.03766 23.6369 5.28346C23.2133 5.53431 22.7289 5.66394 22.2366 5.65812H22.2372ZM25.7269 14.3333V0.334605H30.3207V14.3333H25.7269ZM36.136 7.98461C36.1489 7.99819 36.2475 8.1592 36.4317 8.46765C36.6159 8.7761 36.8558 9.17046 37.1513 9.65067C37.447 10.1307 37.759 10.64 38.0874 11.1787C38.4157 11.7174 38.7247 12.2268 39.0143 12.7067C39.3028 13.1867 39.6313 13.7289 40 14.3333H34.9531C34.6375 13.8207 34.3515 13.3574 34.0952 12.9433C33.8389 12.5293 33.5665 12.0823 33.2778 11.6026C32.9884 11.1233 32.7024 10.6566 32.4196 10.2027C32.1368 9.74879 31.8938 9.35121 31.6905 9.0099C31.4863 8.66837 31.3449 8.43831 31.2663 8.31979C31.0713 8.02568 30.9559 7.68601 30.9315 7.33397C30.951 6.99609 31.0597 6.66947 31.2466 6.3873C31.3254 6.25585 31.47 6.0225 31.6803 5.68732C31.8906 5.35214 32.137 4.95456 32.4196 4.49451C32.7021 4.03446 32.9882 3.56454 33.2778 3.08477C33.5674 2.605 33.8398 2.15477 34.0952 1.73416C34.3519 1.31398 34.6379 0.84735 34.9531 0.334284H40L36.0962 6.70275C35.9754 6.89183 35.9073 7.10974 35.8991 7.33397C35.9121 7.56938 35.9942 7.7957 36.1353 7.98461H36.136Z" fill="white"/>
<path d="M8.59346 27.7949C8.30633 27.5023 7.973 27.259 7.60684 27.0746C7.22312 26.8804 6.82382 26.7187 6.41306 26.5912C5.9921 26.4597 5.558 26.3477 5.11073 26.2554C4.76826 26.1767 4.4492 26.0979 4.15365 26.019C3.88204 25.9488 3.61778 25.8529 3.36438 25.7325C3.14661 25.6294 2.94414 25.4966 2.76284 25.3379C2.59205 25.1874 2.46 24.998 2.37776 24.7857C2.28696 24.536 2.2436 24.2715 2.24985 24.0059C2.24547 23.7309 2.28872 23.4572 2.37776 23.1969C2.45876 22.9674 2.59415 22.7608 2.77239 22.595C2.9571 22.4259 3.16679 22.2863 3.39401 22.181C3.65395 22.0625 3.92984 21.9827 4.21291 21.9442C4.54949 21.8962 4.8891 21.8732 5.22908 21.8751C5.53885 21.8758 5.84842 21.8921 6.15653 21.9242C6.46814 21.9567 6.77776 22.0062 7.08398 22.0725C7.38137 22.137 7.67457 22.2193 7.96205 22.3191C8.23122 22.4117 8.49194 22.5271 8.74144 22.6641L9.01773 20.928C8.73715 20.7816 8.44311 20.6627 8.13966 20.5728C7.83051 20.481 7.51805 20.4019 7.20233 20.3357C6.88282 20.2696 6.56011 20.2204 6.23546 20.188C5.90658 20.1551 5.57111 20.1387 5.22908 20.1387C4.5313 20.1311 3.83528 20.2105 3.15715 20.3751C2.57968 20.5146 2.03398 20.7625 1.54899 21.1056C1.10217 21.4261 0.742672 21.8534 0.503188 22.3484C0.247752 22.9048 0.122853 23.5123 0.138102 24.1243C0.126803 24.598 0.203735 25.0696 0.365006 25.5151C0.506555 25.8887 0.725112 26.2283 1.00638 26.512C1.2845 26.7896 1.60385 27.0226 1.95318 27.2026C2.32373 27.3935 2.71005 27.552 3.10785 27.6765C3.52223 27.8081 3.94652 27.9199 4.38064 28.012C4.73582 28.0907 5.0647 28.1729 5.36726 28.2586C5.64872 28.3362 5.92276 28.4385 6.18616 28.5645C6.41257 28.6713 6.62197 28.811 6.80769 28.9788C6.98395 29.1444 7.12199 29.3465 7.2122 29.5708C7.31675 29.8412 7.36702 30.1295 7.36018 30.4193C7.36537 30.7275 7.31871 31.0343 7.22208 31.327C7.13551 31.5802 7.00159 31.8145 6.82745 32.0176C6.65236 32.2178 6.4372 32.379 6.19595 32.4909C5.92324 32.6165 5.6342 32.703 5.33731 32.7477C4.97508 32.8033 4.60892 32.8298 4.24245 32.8267C3.88618 32.8258 3.53031 32.8027 3.1769 32.7576C2.80856 32.7116 2.44027 32.649 2.07193 32.5698C1.70889 32.4925 1.34996 32.3971 0.996501 32.2837C0.647893 32.1726 0.31572 32.0575 0 31.9387L0.256532 33.8923C0.5929 34.0178 0.93532 34.1263 1.28258 34.2175C1.59785 34.3003 1.91736 34.3662 2.23966 34.4148C2.54836 34.4607 2.85745 34.4968 3.16703 34.5233C3.47661 34.5499 3.78897 34.563 4.10403 34.5628C4.81046 34.5672 5.51521 34.4944 6.20583 34.3457C6.8172 34.2176 7.39936 33.9767 7.92255 33.6354C8.41071 33.3123 8.80547 32.8666 9.06711 32.3429C9.35541 31.7227 9.49397 31.0434 9.47161 30.3598C9.48234 29.8505 9.40552 29.3431 9.24463 28.8598C9.107 28.462 8.88485 28.0987 8.59346 27.7949Z" fill="#F34531"/>
<path d="M19.4464 24.687C18.7382 24.2534 17.9183 24.0373 17.0884 24.0655C16.5958 24.0679 16.1054 24.1307 15.6282 24.2526C15.1124 24.3839 14.6152 24.5796 14.1482 24.835C14.0555 24.885 13.9634 24.9412 13.872 24.9975V24.0852L11.8593 24.4009V38.4896H13.872V34.0718C13.8854 34.0774 13.898 34.0836 13.9115 34.0896C14.2761 34.2409 14.6567 34.3501 15.0461 34.4151C15.5057 34.491 15.971 34.5272 16.4369 34.5237C17.3254 34.539 18.2015 34.3139 18.9725 33.8722C19.7297 33.4235 20.3452 32.7705 20.7484 31.988C21.2144 31.0551 21.4415 30.0211 21.4094 28.9788C21.428 28.0975 21.2563 27.2225 20.9059 26.4136C20.5975 25.7085 20.0903 25.1085 19.4464 24.687ZM18.9235 31.2875C18.6865 31.8115 18.2891 32.2467 17.7888 32.5304C17.2327 32.8218 16.6108 32.9646 15.9833 32.9451C15.6827 32.9453 15.3825 32.9221 15.0855 32.8757C14.7738 32.826 14.4669 32.7502 14.1679 32.6491C14.0732 32.6162 13.9706 32.5787 13.872 32.5425V26.3153C13.8979 26.3031 13.9249 26.2873 13.9509 26.2755C14.2401 26.1439 14.5097 26.032 14.7599 25.9397C14.9966 25.8513 15.241 25.7852 15.49 25.7424C15.7116 25.7042 15.936 25.6844 16.1609 25.6832C16.7691 25.6629 17.3728 25.7952 17.9168 26.068C18.3926 26.3269 18.7652 26.7412 18.9725 27.2417C19.2234 27.8821 19.3409 28.567 19.3178 29.2544C19.3388 29.953 19.2041 30.6475 18.9235 31.2875Z" fill="#F34531"/>
<path d="M31.0293 24.6968C30.2072 24.2599 29.2863 24.0424 28.3556 24.0654C27.4162 24.0439 26.4876 24.2683 25.6618 24.7166C24.8995 25.1431 24.276 25.7802 23.8661 26.5517C23.4208 27.417 23.2003 28.3805 23.2248 29.3534C23.1996 30.3188 23.406 31.2762 23.8267 32.1455C24.2047 32.9044 24.8076 33.5281 25.5533 33.9316C26.3559 34.3521 27.252 34.5624 28.1579 34.543C29.1063 34.5618 30.0437 34.3378 30.881 33.8922C31.6629 33.4657 32.304 32.8212 32.7264 32.037C33.1845 31.1615 33.412 30.1837 33.3874 29.1958C33.4098 28.2548 33.1995 27.3229 32.7753 26.4826C32.3822 25.7282 31.7747 25.1068 31.0293 24.6968ZM30.9106 31.3072C30.6889 31.8199 30.3132 32.2509 29.8355 32.5405C29.3554 32.8152 28.81 32.955 28.2569 32.945C27.7145 32.9585 27.1798 32.8145 26.7175 32.5303C26.2602 32.2265 25.9031 31.794 25.6914 31.2875C25.4228 30.6376 25.295 29.9382 25.3165 29.2353C25.2932 28.5514 25.4211 27.8707 25.6914 27.242C25.9128 26.7478 26.2816 26.3343 26.7474 26.058C27.2451 25.7839 27.807 25.6477 28.375 25.6634C28.8185 25.6523 29.2592 25.7364 29.6675 25.9101C30.0251 26.0715 30.337 26.3191 30.5755 26.6306C30.8298 26.9691 31.0141 27.3548 31.1178 27.7652C31.2411 28.2454 31.3008 28.7396 31.2954 29.2353C31.3184 29.9457 31.1874 30.6526 30.9106 31.3072Z" fill="#F34531"/>
<path d="M39.9577 24.2131C39.5887 24.3123 39.2363 24.4652 38.9118 24.6669C38.5753 24.8772 38.2642 25.1255 37.9844 25.4069C37.9377 25.4536 37.8926 25.5056 37.8463 25.5546V24.0851L35.8336 24.3811V34.3461H37.8463V26.8911C37.9958 26.7866 38.1506 26.6898 38.31 26.601C38.5074 26.4921 38.7118 26.3965 38.922 26.3149C39.1257 26.236 39.3328 26.1669 39.5433 26.1077C39.7599 26.0474 39.9809 26.0044 40.2044 25.9791C40.4435 25.9528 40.6844 25.9464 40.9246 25.9597L41.1614 24.1046C40.7569 24.0758 40.3505 24.1124 39.9577 24.2131Z" fill="#F34531"/>
<path d="M48.5216 32.6984C48.4291 32.7182 48.3272 32.7375 48.2154 32.7576L47.8803 32.8165C47.7726 32.8359 47.6639 32.8492 47.5547 32.8563C47.449 32.8629 47.3504 32.8662 47.2587 32.8662C46.9564 32.8742 46.6561 32.8135 46.3806 32.6886C46.1439 32.5761 45.9475 32.3936 45.8182 32.1657C45.68 31.9081 45.612 31.6188 45.6209 31.3267V25.8611H48.4032L48.6202 24.2825H45.6209V21.1651L43.6082 21.8755V24.2825H42.0888L41.8714 25.8611H43.6082V31.7414C43.5992 32.1336 43.6593 32.5244 43.7858 32.8957C43.8873 33.1895 44.0448 33.4607 44.2495 33.6946C44.437 33.9031 44.6654 34.071 44.9204 34.1879C45.1812 34.308 45.4563 34.3943 45.739 34.4447C46.0189 34.4963 46.3029 34.5227 46.5875 34.5237C46.798 34.5237 47.0052 34.517 47.2094 34.5036C47.4135 34.4903 47.601 34.4706 47.7718 34.4447C47.9425 34.4181 48.104 34.3885 48.2552 34.3556C48.4065 34.3227 48.5344 34.2938 48.6397 34.2672L48.7584 32.629C48.6816 32.6588 48.6023 32.682 48.5216 32.6984Z" fill="#F34531"/>
</svg>

<svg xmlns="http://www.w3.org/2000/svg" viewBox="0 0 49 39"><path fill="#fff" d="M0 14.333V.335h4.593v13.998H0Zm10.843-11.77 2.641 11.77H8.457L5.303.335h2.82a2.655 2.655 0 0 1 1.764.64c.491.404.829.964.956 1.588Zm3.331 11.77V.335h4.594v13.998h-4.594Zm8.063-8.675a2.738 2.738 0 0 1-1.409-.375 2.778 2.778 0 0 1-1.015-1.015 2.735 2.735 0 0 1-.375-1.41 2.685 2.685 0 0 1 .375-1.4A2.812 2.812 0 0 1 23.637.454c.415.244.761.59 1.005 1.005.251.424.38.908.375 1.4.005.496-.125.983-.375 1.41a2.8 2.8 0 0 1-1.005 1.015c-.424.251-.908.38-1.4.375Zm3.49 8.675V.335h4.594v13.998h-4.594Zm10.409-6.348c.013.013.111.174.296.483.184.308.424.702.72 1.183a386.846 386.846 0 0 1 1.862 3.056c.289.48.617 1.022.986 1.626h-5.047l-.858-1.39c-.256-.414-.529-.86-.817-1.34-.29-.48-.576-.946-.858-1.4a71.148 71.148 0 0 1-.73-1.193 21.112 21.112 0 0 0-.424-.69 2.04 2.04 0 0 1-.334-.986c.019-.338.128-.665.315-.947.078-.131.223-.364.433-.7a216.7 216.7 0 0 0 1.598-2.603l.817-1.35.858-1.4H40l-3.904 6.369c-.12.189-.189.407-.197.631.013.235.095.462.236.65h.001Z"/><path fill="#F34531" d="M8.593 27.795a3.738 3.738 0 0 0-.986-.72 7.696 7.696 0 0 0-1.194-.484 13.548 13.548 0 0 0-1.302-.336 28.273 28.273 0 0 1-.957-.236 4.41 4.41 0 0 1-.79-.286 2.607 2.607 0 0 1-.601-.395 1.42 1.42 0 0 1-.385-.552 2.135 2.135 0 0 1-.128-.78 2.382 2.382 0 0 1 .128-.81c.08-.229.216-.435.394-.601a2.44 2.44 0 0 1 .622-.414c.26-.119.536-.198.819-.237a6.923 6.923 0 0 1 1.016-.069c.31 0 .62.017.928.05.311.032.62.081.927.148.297.064.59.146.878.246.27.093.53.208.78.345l.276-1.736a4.918 4.918 0 0 0-.878-.355c-.31-.092-.622-.171-.938-.237a9.36 9.36 0 0 0-.967-.148c-.328-.033-.664-.05-1.006-.05a8.396 8.396 0 0 0-2.072.237 4.692 4.692 0 0 0-1.608.73c-.447.321-.806.748-1.046 1.243a4.017 4.017 0 0 0-.365 1.776c-.011.474.066.946.227 1.391.142.374.36.713.641.997.278.278.598.51.947.69.37.191.757.35 1.155.474.414.132.839.244 1.273.336.355.079.684.16.986.247.282.077.556.18.82.305.226.107.435.247.62.415.177.165.315.367.405.592.105.27.155.558.148.848.005.308-.041.615-.138.908a2.11 2.11 0 0 1-.395.69c-.175.2-.39.362-.631.474a3.187 3.187 0 0 1-.859.257 6.836 6.836 0 0 1-1.095.079c-.356-.001-.712-.024-1.065-.07a12.8 12.8 0 0 1-1.105-.187 11.06 11.06 0 0 1-1.075-.286c-.35-.111-.681-.227-.997-.345l.257 1.953c.336.126.678.234 1.026.325.315.083.634.15.957.198.308.046.617.082.927.108.31.027.622.04.937.04a9.698 9.698 0 0 0 2.102-.217 5.03 5.03 0 0 0 1.717-.71 3.34 3.34 0 0 0 1.144-1.293c.288-.62.427-1.3.405-1.983a4.452 4.452 0 0 0-.227-1.5 2.916 2.916 0 0 0-.652-1.065ZM19.446 24.687a4.24 4.24 0 0 0-2.358-.622 6.018 6.018 0 0 0-1.46.188 6.348 6.348 0 0 0-1.756.744v-.912l-2.013.316V38.49h2.013v-4.418l.04.018c.364.15.745.26 1.134.325.46.076.925.112 1.39.109a4.93 4.93 0 0 0 2.537-.652 4.684 4.684 0 0 0 1.775-1.884 6.3 6.3 0 0 0 .661-3.01 6.128 6.128 0 0 0-.503-2.564 3.96 3.96 0 0 0-1.46-1.727Zm-.523 6.6c-.236.524-.634.96-1.134 1.243a3.646 3.646 0 0 1-1.806.415 5.634 5.634 0 0 1-1.815-.296c-.095-.033-.197-.07-.296-.107v-6.227c.026-.012.053-.028.079-.04.29-.131.559-.243.809-.335a4.046 4.046 0 0 1 1.4-.257 3.646 3.646 0 0 1 1.757.385c.476.259.848.673 1.055 1.174.251.64.369 1.325.346 2.012a4.71 4.71 0 0 1-.395 2.034ZM31.03 24.697a5.412 5.412 0 0 0-2.674-.632 5.388 5.388 0 0 0-2.694.652 4.548 4.548 0 0 0-1.796 1.835 5.804 5.804 0 0 0-.641 2.801 6.047 6.047 0 0 0 .602 2.792c.378.76.98 1.383 1.726 1.787.803.42 1.699.63 2.605.611a5.562 5.562 0 0 0 2.723-.65 4.596 4.596 0 0 0 1.845-1.856 5.816 5.816 0 0 0 .661-2.841 5.719 5.719 0 0 0-.612-2.713 4.313 4.313 0 0 0-1.746-1.786Zm-.12 6.61a2.691 2.691 0 0 1-1.075 1.234 3.067 3.067 0 0 1-1.578.404 2.806 2.806 0 0 1-1.54-.415 2.779 2.779 0 0 1-1.026-1.242 4.975 4.975 0 0 1-.374-2.053 4.646 4.646 0 0 1 .374-1.993c.222-.494.59-.908 1.056-1.184a3.191 3.191 0 0 1 1.628-.395c.444-.01.884.073 1.293.247.357.162.669.41.908.72.254.34.438.725.542 1.135.123.48.183.975.177 1.47a4.911 4.911 0 0 1-.384 2.072ZM39.958 24.213c-.37.1-.722.252-1.046.454-.337.21-.648.458-.928.74-.046.047-.091.099-.138.148v-1.47l-2.012.296v9.965h2.012v-7.455a5.051 5.051 0 0 1 1.076-.576c.204-.079.41-.148.621-.207a4.245 4.245 0 0 1 1.382-.148l.236-1.855a3.769 3.769 0 0 0-1.203.108ZM48.522 32.698c-.093.02-.195.04-.307.06l-.335.058c-.107.02-.216.033-.325.04-.106.007-.205.01-.296.01a1.999 1.999 0 0 1-.878-.177 1.276 1.276 0 0 1-.563-.523 1.667 1.667 0 0 1-.197-.84v-5.465h2.782l.217-1.579h-3v-3.117l-2.012.71v2.407h-1.52l-.217 1.58h1.737v5.88c-.009.392.051.782.178 1.154.101.294.259.565.463.799.188.208.416.376.671.493.261.12.536.206.819.257.28.051.564.078.849.079.21 0 .417-.007.621-.02a6.653 6.653 0 0 0 1.046-.148c.151-.033.28-.062.385-.089l.118-1.638c-.076.03-.156.053-.236.07Z"/></svg>
